X:1
T:Melancthon, 76.76.77
T:Melancthon, 76.76.77
T:Edwin Moss (1838-1919)
T:Public Domain Courtesy of the Cyber Hymnal™
C:Edwin Moss (1838-1919)
Z:Public Domain
Z:Courtesy of the Cyber Hymnal™
%%score ( 1 2 ) ( 3 4 )
L:1/8
Q:1/4=110
M:4/4
K:D
V:1 treble 
V:2 treble 
V:3 bass 
V:4 bass 
V:1
 [DF]3 [DF] [CE]2 D2 | [Dd]2 [Dc]2 [DB]4 | [DA]3 [DF] [DF]2 [D^G]2 | [CA]4 [CE]4 | %4
 [CG]3 [EG] [DF]2 [B,E]2 | [Ee]2 [Ed]2 [Ec]4 | [DB]3 [DA] [D^G]2 [DB]2 | [DB]4 [CA]4 | %8
 [EG]2 [DF]2 [CE]3 [DF] | [CG]2 [=CA]2 [B,B]4 | [CA]2 D2 [CG]2 [DF]2 | [DE]4 [CE]4 | D8 |] %13
V:2
 x6 D2 | x8 | x8 | x8 | x8 | x8 | x8 | x8 | x8 | x8 | x2 D2 x4 | x8 | D8 |] %13
V:3
 [D,A,]3 [D,A,] [D,G,]2 [D,F,]2 | [F,A,]2 [F,A,]2 G,4 | [F,A,]3 [D,A,] [B,,B,]2 [E,B,]2 | %3
 [A,,A,]4 [A,,A,]4 | [A,,A,]3 [C,A,] [D,A,]2 [D,^G,]2 | [C,A,]2 [B,,^G,]2 [A,,A,]4 | %6
 [D,F,]3 [D,F,] [E,B,]2 [E,^G,]2 | [E,^G,]4 [A,,A,]4 | [C,A,]2 [D,A,]2 [G,A,]3 [F,A,] | %9
 [E,G,]2 [D,F,]2 [G,,G,]4 | [G,A,]2 [F,A,]2 [E,G,]2 [D,A,]2 | [B,,^G,]4 (A,2 =G,2) | [D,F,]8 |] %13
V:4
 x8 | x4 G,4 | x8 | x8 | x8 | x8 | x8 | x8 | x8 | x8 | x8 | x4 A,,4 | x8 |] %13

